svg/fluentui-system-icons/ic_fluent_patient_20_regular.svg

<svg width="20" height="20" viewBox="0 0 20 20" fill="none" xmlns="http://www.w3.org/2000/svg">
<path d="M10 4C8.89543 4 8 4.89543 8 6C8 7.10457 8.89543 8 10 8C11.1046 8 12 7.10457 12 6C12 4.89543 11.1046 4 10 4ZM9 6C9 5.44772 9.44772 5 10 5C10.5523 5 11 5.44772 11 6C11 6.55228 10.5523 7 10 7C9.44772 7 9 6.55228 9 6ZM6.5 14.5C6.22386 14.5 6 14.7239 6 15C6 15.2761 6.22386 15.5 6.5 15.5H13.5C13.7761 15.5 14 15.2761 14 15C14 14.7239 13.7761 14.5 13.5 14.5H6.5ZM4 4C4 2.89543 4.89543 2 6 2H14C15.1046 2 16 2.89543 16 4V16C16 17.1046 15.1046 18 14 18H6C4.89543 18 4 17.1046 4 16V4ZM14 3H6C5.44772 3 5 3.44772 5 4V12H7V10C7 9.44772 7.44772 9 8 9H12C12.5523 9 13 9.44772 13 10V12H15V4C15 3.44772 14.5523 3 14 3ZM12 10H8V12H12V10ZM5 13V16C5 16.5523 5.44772 17 6 17H14C14.5523 17 15 16.5523 15 16V13H5Z" fill="#212121"/>
</svg>

<svg xmlns="http://www.w3.org/2000/svg" width="20" height="20"><path d="M10 4a2 2 0 1 0 0 4 2 2 0 0 0 0-4ZM9 6a1 1 0 1 1 2 0 1 1 0 0 1-2 0Zm-2.5 8.5a.5.5 0 0 0 0 1h7a.5.5 0 0 0 0-1h-7ZM4 4a2 2 0 0 1 2-2h8a2 2 0 0 1 2 2v12a2 2 0 0 1-2 2H6a2 2 0 0 1-2-2V4Zm10-1H6a1 1 0 0 0-1 1v8h2v-2a1 1 0 0 1 1-1h4a1 1 0 0 1 1 1v2h2V4a1 1 0 0 0-1-1Zm-2 7H8v2h4v-2Zm-7 3v3a1 1 0 0 0 1 1h8a1 1 0 0 0 1-1v-3H5Z"/></svg>
